!!!OTL: Gebt uns was, S. 15
!!!id: L0012
**kern
*clefG2
*k[b-e-]
*B-:
{16b-
=1
16b-
8b-
8b-
8b-
8a
=2
8b-
8g
4f}
=3
{8g
8d
8e-
8e-
=4
8f
8f
4B-}
=5
{8.b-
16cc
8dd
8b-
=6
8cc
8dd
4ee-}
=7
{8.dd
16ee-
8ff
8dd
=8
8ee-
8cc
4b-}
==
*-
!!!minrhy: 16
!!!meters: 2/4 ]  ZZ[4
!!!cut: Gebt uns was, S. 15
!!!reg: Luxemburg
!!!trd: Die Luxemburger Volkslieder &auml;lterer Zeit, Luxemburg 1904 posth.
!!!rhy1:   X_X_X_X_  X_X_X__   (x2)
!!!rhy2: X_X_X_X_  X_X_X__
!!!key: L0012  16 Bb 2/4 ]  ZZ[4
!!!mod: HEPTATONIK IONISCH]  AMBITUS[12
!!!kad: -5-141
!!!akz: 11_-6-5_12_34_
!!!fot: 'a__b__c__cs"
!!!for: 'a__a__b__b__
!!!fok: '\__Sd_/__^d_
!! PHRAS[VOLLTAKTIG]
!!!fkt: Kinderlied/Heischelied
!!!bem: Heischelied in der Karnevalszeit
!! FONTAINE, Ed.:
!! PR[9] 2K[6] 2G[21] 3K[0] 3G[0] 4A[3] 4Ü[0] 5A[6] 6K[0] 6G[0]
!! 7K[0] 7G[0] 8A[0] MEHR[0] SI[36] ABS[33] SR[27] SP[9]
!! ST[16] 2k[9] 2g[39] 3k[6] 3g[0] 4d[0] 4ü[0] 5d[0] 6k[0] 6g[0]
!! 7k[0] 7g[0] 8d[0] mehr[0] si[55] dm[-19] sr[48] sp[6]
!! 1F[76] 2F[18] 3F[0] 4F[0] LF[0] 2P[5] 3P[0] 4P[0] TRI[0] DF[3] AB[38]
!! TF[0] U3K[0] U3[0] U4[0] U4Ü[0] U5[0] U6K[0] U6[0] U7K[3] U7[0]
!! N1[18] N2K[0] N2[9] N3K[18] N3[0] N4[24] N4Ü[0] N5[24] N6K[6] N6[0]
!!!n7k: 0] N7[0] O1[0] O2K[0] O2[0] O3K[0] O3[0] HÖ[0
!!!RNB: symbol: &auml;      = a umlaut  (UTF-8: Å„)
